X: 26281
T: Melter
R: jig
M: 6/8
K: Dmajor
|:EFA AED|z A,B, DEF|FB/c/d cAE|FAE EDE|
EFA AED|z A,B, DEF|FdF Bcd|cAE EDD:|
|:efg afd|Adf gfa-|afd BAE|FAE EDE|
Adf gfa-|agf dEF|Adf gfd|BAE FAD:|

